src/lib/packages/icons/src/assets/line/caret-up.svg

<svg width="24" height="24" viewBox="0 0 24 24" fill="none" xmlns="http://www.w3.org/2000/svg">
<path d="M18.256 13.3139L13.8749 8.121C12.9429 7.015 11.0569 7.015 10.1249 8.121L5.74384 13.3139C5.21484 13.9419 5.10096 14.794 5.44696 15.538C5.79496 16.286 6.52401 16.7499 7.35101 16.7499H16.6479C17.4749 16.7499 18.2049 16.286 18.5519 15.538C18.8979 14.794 18.785 13.9419 18.256 13.3139ZM17.1918 14.9049C17.1548 14.9859 17.0039 15.2499 16.6479 15.2499H7.35101C6.99501 15.2499 6.84382 14.9859 6.80682 14.9049C6.75882 14.8029 6.67183 14.5389 6.88983 14.2799L11.2709 9.08682C11.4519 8.87282 11.7169 8.74991 11.9999 8.74991C12.2829 8.74991 12.5479 8.87282 12.7289 9.08682L17.11 14.2799C17.327 14.5389 17.2398 14.8039 17.1918 14.9049Z" fill="currentColor"/>
</svg>

<svg xmlns="http://www.w3.org/2000/svg" width="24" height="24" fill="none"><path fill="currentColor" d="M18.256 13.314 13.875 8.12c-.932-1.106-2.818-1.106-3.75 0l-4.381 5.193a2.067 2.067 0 0 0-.297 2.224 2.078 2.078 0 0 0 1.904 1.212h9.297c.827 0 1.557-.464 1.904-1.212a2.067 2.067 0 0 0-.296-2.224Zm-1.064 1.59a.589.589 0 0 1-.544.346H7.35a.59.59 0 0 1-.544-.345.567.567 0 0 1 .083-.625l4.38-5.193A.951.951 0 0 1 12 8.75c.283 0 .548.123.729.337l4.381 5.193c.217.259.13.524.082.625Z"/></svg>
